src/assets/animalImage/img/giraffe.svg

<?xml version="1.0" encoding="UTF-8" standalone="no"?><!DOCTYPE svg PUBLIC "-//W3C//DTD SVG 1.1//EN" "http://www.w3.org/Graphics/SVG/1.1/DTD/svg11.dtd"><svg width="100%" height="100%" viewBox="0 0 236 308" version="1.1" xmlns="http://www.w3.org/2000/svg" xmlns:xlink="http://www.w3.org/1999/xlink" xml:space="preserve" style="fill-rule:evenodd;clip-rule:evenodd;stroke-linejoin:round;stroke-miterlimit:1.41421;"><path d="M199.942,49.79c-15.219,-9.062 -32.222,0.935 -45.063,6.022c-12.831,5.103 -15.168,2.025 -15.168,2.025c0,0 -5.419,-6.694 -8.985,-10.228c2.313,-4.281 4.847,-8.806 7.647,-13.587c3.506,-5.991 6.362,-10.841 6.216,-10.922c-0.154,-0.078 3.165,0.575 6.743,-1.182c2.113,-1.031 3.913,-2.709 5.097,-4.946c2.991,-5.641 0.834,-12.635 -4.803,-15.619c-5.628,-2.997 -12.647,-0.847 -15.625,4.794c-1.178,2.231 -1.55,4.646 -1.247,6.978c0.556,3.947 2.956,6.331 2.778,6.234c-0.172,-0.097 -2.675,4.947 -5.781,11.159c-1.825,3.663 -4.069,8 -6.597,12.716c-2.747,-1.631 -5.603,-2.531 -8.528,-2.531c-3.691,0 -7.275,1.412 -10.697,3.956c-2.856,-5.25 -5.353,-10.1 -7.375,-14.141c-3.106,-6.212 -5.603,-11.256 -5.772,-11.159c-0.178,0.1 2.225,-2.278 2.763,-6.234c0.331,-2.319 -0.053,-4.747 -1.231,-6.978c-2.985,-5.641 -9.988,-7.791 -15.625,-4.794c-5.653,2.984 -7.794,9.978 -4.797,15.619c1.184,2.24 2.984,3.915 5.078,4.946c3.581,1.757 6.919,1.104 6.762,1.182c-0.159,0.081 2.691,4.931 6.2,10.922c3.247,5.528 6.141,10.712 8.71,15.562c-2.247,2.544 -4.388,5.559 -6.431,8.95l0.193,-0.697c0,0 -2.331,3.075 -15.172,-2.025c-12.837,-5.09 -29.84,-15.087 -45.068,-6.009c-13.257,7.903 -27.785,14.175 -33.563,25.606c-1.425,2.813 -0.203,7.284 2.472,8.947c2.481,1.534 5.994,3.112 10.534,3.716c9.966,1.334 16.253,8.45 26.213,9.781c9.962,1.325 26.715,-1.266 31.612,-5.431c3.863,-3.275 8.197,-10.075 13.188,-13.079c-5.785,16.054 -9.703,34.997 -10.969,52.585c-0.219,3.15 1.906,4.437 4.769,3.131c8.287,-3.809 19.603,-7.131 33.922,-7.131c0.312,0 0.612,0 0.922,0.003c17.109,0.162 31.6,5.462 41.737,10.647c2.8,1.437 4.969,0.178 4.809,-2.978c-0.959,-18.797 -5.09,-39.544 -11.403,-56.857c5.457,2.604 10.135,10.157 14.272,13.679c4.906,4.165 21.659,6.756 31.616,5.431c9.953,-1.331 16.253,-8.447 26.215,-9.781c9.947,-1.325 14.954,-7.304 14.954,-7.304c-3.463,-14.987 -20.307,-21.912 -35.522,-30.978Z" style="fill:#facc4a;fill-rule:nonzero;"/><path d="M128.464,96.125c-4.5,0 -8.15,-3.65 -8.15,-8.153c0,-4.5 3.65,-8.16 8.15,-8.16c4.503,0 8.159,3.66 8.159,8.16c0,4.503 -3.656,8.153 -8.159,8.153Z" style="fill:#fff;fill-rule:nonzero;"/><path d="M103.248,96.125c-4.497,0 -8.153,-3.65 -8.153,-8.153c0,-4.5 3.656,-8.16 8.153,-8.16c4.506,0 8.156,3.66 8.156,8.16c0,4.503 -3.65,8.153 -8.156,8.153Z" style="fill:#fff;fill-rule:nonzero;"/><path d="M127.576,181.2c-9.928,2.037 -19.078,1.022 -24.616,-0.069c-3.1,-0.603 -5.253,1.166 -5.181,4.322c0.185,7.919 -0.09,22.131 -0.572,38.053l0.072,0.491c0.05,0.275 0,3.043 -0.134,6.19c-0.506,12.26 -1.238,30.563 -1.794,46.094c-0.025,0.131 -0.416,16.503 -0.628,25.453c-0.069,3.153 2.422,5.703 5.578,5.703l26.872,0c3.163,0 5.709,-0.647 5.703,-1.44l-0.012,-1.438c-0.103,-12.512 -0.038,-85.766 -0.013,-111.153c0.006,-3.156 0.031,-5.847 0.084,-6.031l0.057,-0.303c0.012,-0.575 0.018,-1.1 0.018,-1.616c0.047,-3.147 -2.343,-4.894 -5.434,-4.256Z" style="fill:#ba6628;fill-rule:nonzero;"/><path d="M106.598,272.8c-2.691,1.65 -5.363,-1.36 -5.253,-4.5c0.422,-11.157 0.89,-22.91 1.275,-32.388c0.128,-3.147 2.765,-5.15 5.59,-3.747c6.257,3.103 11.794,9.378 8.576,22.069c-2.563,10.172 -6.219,16.138 -10.188,18.566Z" style="fill:#392e2a;fill-rule:nonzero;"/><path d="M127.388,219.49c-0.006,3.157 -2.446,4.76 -4.781,2.635c-3.709,-3.391 -6.218,-8.782 -5.362,-16.816c0.537,-5.166 2.697,-8.544 5.272,-10.741c2.387,-2.04 4.897,-0.328 4.89,2.832c0,6.14 -0.019,13.768 -0.019,22.09Z" style="fill:#392e2a;fill-rule:nonzero;"/><path d="M155.61,68.981c0,0 24.532,-17.531 45.901,-2.009l8.696,4.018c0,0 -32.793,24.985 -54.597,-2.009Z" style="fill:#a07348;fill-rule:nonzero;"/><path d="M27.395,72.662c0,0 21.953,-20.665 45.212,-8.147l9.163,2.81c0,0 -29.144,29.159 -54.375,5.337Z" style="fill:#a07348;fill-rule:nonzero;"/><path d="M103.248,96.534c-2.363,0 -4.278,-1.912 -4.278,-4.281c0,-2.36 1.915,-4.281 4.278,-4.281c2.362,0 4.284,1.921 4.284,4.281c0,2.369 -1.922,4.281 -4.284,4.281Z" style="fill:#030404;fill-rule:nonzero;"/><path d="M128.464,96.534c-2.363,0 -4.282,-1.912 -4.282,-4.281c0,-2.36 1.919,-4.281 4.282,-4.281c2.365,0 4.284,1.921 4.284,4.281c0,2.369 -1.919,4.281 -4.284,4.281Z" style="fill:#030404;fill-rule:nonzero;"/><path d="M155.392,138.818c-8.766,-5.175 -23.675,-11.987 -41.597,-12.159l-0.813,-0.012c-15.806,0 -27.19,4.578 -34.172,8.631c-2.728,1.575 -4.643,5.684 -4.303,8.812c3.594,32.819 21.363,41.675 42.772,41.675c20.606,0 37.819,-8.275 42.275,-38.231c0.463,-3.119 -1.44,-7.122 -4.162,-8.716Z" style="fill:#e07f27;fill-rule:nonzero;"/><path d="M110.342,162.034l-0.716,0.113c-2.741,0 -4.797,-4.885 -6.059,-8.994c-1.375,-4.578 -2.388,-10.219 0.665,-11.144l0.694,-0.103c2.741,0 4.803,4.887 6.05,8.997c1.391,4.569 2.416,10.209 -0.634,11.131Z" style="fill:#392e2a;fill-rule:nonzero;"/><path d="M130.848,152.309c-1.147,4.166 -3.088,9.153 -5.866,9.153l-0.634,-0.084c-3.075,-0.85 -2.216,-6.516 -0.953,-11.116c1.156,-4.184 3.109,-9.156 5.872,-9.156l0.634,0.084c3.078,0.85 2.216,6.503 0.947,11.119Z" style="fill:#392e2a;fill-rule:nonzero;"/></svg>

<?xml version="1.0" encoding="UTF-8" standalone="no"?>
<!DOCTYPE svg PUBLIC "-//W3C//DTD SVG 1.1//EN" "http://www.w3.org/Graphics/SVG/1.1/DTD/svg11.dtd">
<svg width="100%" height="100%" viewBox="0 0 308 308" version="1.1" xmlns="http://www.w3.org/2000/svg" xmlns:xlink="http://www.w3.org/1999/xlink" xml:space="preserve" xmlns:serif="http://www.serif.com/" style="fill-rule:evenodd;clip-rule:evenodd;stroke-linejoin:round;stroke-miterlimit:1.41421;">
    <g transform="matrix(1,0,0,1,36,0)">
        <path d="M199.942,49.79C184.723,40.728 167.72,50.725 154.879,55.812C142.048,60.915 139.711,57.837 139.711,57.837C139.711,57.837 134.292,51.143 130.726,47.609C133.039,43.328 135.573,38.803 138.373,34.022C141.879,28.031 144.735,23.181 144.589,23.1C144.435,23.022 147.754,23.675 151.332,21.918C153.445,20.887 155.245,19.209 156.429,16.972C159.42,11.331 157.263,4.337 151.626,1.353C145.998,-1.644 138.979,0.506 136.001,6.147C134.823,8.378 134.451,10.793 134.754,13.125C135.31,17.072 137.71,19.456 137.532,19.359C137.36,19.262 134.857,24.306 131.751,30.518C129.926,34.181 127.682,38.518 125.154,43.234C122.407,41.603 119.551,40.703 116.626,40.703C112.935,40.703 109.351,42.115 105.929,44.659C103.073,39.409 100.576,34.559 98.554,30.518C95.448,24.306 92.951,19.262 92.782,19.359C92.604,19.459 95.007,17.081 95.545,13.125C95.876,10.806 95.492,8.378 94.314,6.147C91.329,0.506 84.326,-1.644 78.689,1.353C73.036,4.337 70.895,11.331 73.892,16.972C75.076,19.212 76.876,20.887 78.97,21.918C82.551,23.675 85.889,23.022 85.732,23.1C85.573,23.181 88.423,28.031 91.932,34.022C95.179,39.55 98.073,44.734 100.642,49.584C98.395,52.128 96.254,55.143 94.211,58.534L94.404,57.837C94.404,57.837 92.073,60.912 79.232,55.812C66.395,50.722 49.392,40.725 34.164,49.803C20.907,57.706 6.379,63.978 0.601,75.409C-0.824,78.222 0.398,82.693 3.073,84.356C5.554,85.89 9.067,87.468 13.607,88.072C23.573,89.406 29.86,96.522 39.82,97.853C49.782,99.178 66.535,96.587 71.432,92.422C75.295,89.147 79.629,82.347 84.62,79.343C78.835,95.397 74.917,114.34 73.651,131.928C73.432,135.078 75.557,136.365 78.42,135.059C86.707,131.25 98.023,127.928 112.342,127.928C112.654,127.928 112.954,127.928 113.264,127.931C130.373,128.093 144.864,133.393 155.001,138.578C157.801,140.015 159.97,138.756 159.81,135.6C158.851,116.803 154.72,96.056 148.407,78.743C153.864,81.347 158.542,88.9 162.679,92.422C167.585,96.587 184.338,99.178 194.295,97.853C204.248,96.522 210.548,89.406 220.51,88.072C230.457,86.747 235.464,80.768 235.464,80.768C232.001,65.781 215.157,58.856 199.942,49.79Z" style="fill:rgb(250,204,74);fill-rule:nonzero;"/>
    </g>
    <g transform="matrix(1,0,0,1,36,0)">
        <path d="M128.464,96.125C123.964,96.125 120.314,92.475 120.314,87.972C120.314,83.472 123.964,79.812 128.464,79.812C132.967,79.812 136.623,83.472 136.623,87.972C136.623,92.475 132.967,96.125 128.464,96.125Z" style="fill:white;fill-rule:nonzero;"/>
    </g>
    <g transform="matrix(1,0,0,1,36,0)">
        <path d="M103.248,96.125C98.751,96.125 95.095,92.475 95.095,87.972C95.095,83.472 98.751,79.812 103.248,79.812C107.754,79.812 111.404,83.472 111.404,87.972C111.404,92.475 107.754,96.125 103.248,96.125Z" style="fill:white;fill-rule:nonzero;"/>
    </g>
    <g transform="matrix(1,0,0,1,36,0)">
        <path d="M127.576,181.2C117.648,183.237 108.498,182.222 102.96,181.131C99.86,180.528 97.707,182.297 97.779,185.453C97.964,193.372 97.689,207.584 97.207,223.506L97.279,223.997C97.329,224.272 97.279,227.04 97.145,230.187C96.639,242.447 95.907,260.75 95.351,276.281C95.326,276.412 94.935,292.784 94.723,301.734C94.654,304.887 97.145,307.437 100.301,307.437L127.173,307.437C130.336,307.437 132.882,306.79 132.876,305.997L132.864,304.559C132.761,292.047 132.826,218.793 132.851,193.406C132.857,190.25 132.882,187.559 132.935,187.375L132.992,187.072C133.004,186.497 133.01,185.972 133.01,185.456C133.057,182.309 130.667,180.562 127.576,181.2Z" style="fill:rgb(186,102,40);fill-rule:nonzero;"/>
    </g>
    <g transform="matrix(1,0,0,1,36,0)">
        <path d="M106.598,272.8C103.907,274.45 101.235,271.44 101.345,268.3C101.767,257.143 102.235,245.39 102.62,235.912C102.748,232.765 105.385,230.762 108.21,232.165C114.467,235.268 120.004,241.543 116.786,254.234C114.223,264.406 110.567,270.372 106.598,272.8Z" style="fill:rgb(57,46,42);fill-rule:nonzero;"/>
    </g>
    <g transform="matrix(1,0,0,1,36,0)">
        <path d="M127.388,219.49C127.382,222.647 124.942,224.25 122.607,222.125C118.898,218.734 116.389,213.343 117.245,205.309C117.782,200.143 119.942,196.765 122.517,194.568C124.904,192.528 127.414,194.24 127.407,197.4C127.407,203.54 127.388,211.168 127.388,219.49Z" style="fill:rgb(57,46,42);fill-rule:nonzero;"/>
    </g>
    <g transform="matrix(1,0,0,1,36,0)">
        <path d="M155.61,68.981C155.61,68.981 180.142,51.45 201.511,66.972L210.207,70.99C210.207,70.99 177.414,95.975 155.61,68.981Z" style="fill:rgb(160,115,72);fill-rule:nonzero;"/>
    </g>
    <g transform="matrix(1,0,0,1,36,0)">
        <path d="M27.395,72.662C27.395,72.662 49.348,51.997 72.607,64.515L81.77,67.325C81.77,67.325 52.626,96.484 27.395,72.662Z" style="fill:rgb(160,115,72);fill-rule:nonzero;"/>
    </g>
    <g transform="matrix(1,0,0,1,36,0)">
        <path d="M103.248,96.534C100.885,96.534 98.97,94.622 98.97,92.253C98.97,89.893 100.885,87.972 103.248,87.972C105.61,87.972 107.532,89.893 107.532,92.253C107.532,94.622 105.61,96.534 103.248,96.534Z" style="fill:rgb(3,4,4);fill-rule:nonzero;"/>
    </g>
    <g transform="matrix(1,0,0,1,36,0)">
        <path d="M128.464,96.534C126.101,96.534 124.182,94.622 124.182,92.253C124.182,89.893 126.101,87.972 128.464,87.972C130.829,87.972 132.748,89.893 132.748,92.253C132.748,94.622 130.829,96.534 128.464,96.534Z" style="fill:rgb(3,4,4);fill-rule:nonzero;"/>
    </g>
    <g transform="matrix(1,0,0,1,36,0)">
        <path d="M155.392,138.818C146.626,133.643 131.717,126.831 113.795,126.659L112.982,126.647C97.176,126.647 85.792,131.225 78.81,135.278C76.082,136.853 74.167,140.962 74.507,144.09C78.101,176.909 95.87,185.765 117.279,185.765C137.885,185.765 155.098,177.49 159.554,147.534C160.017,144.415 158.114,140.412 155.392,138.818Z" style="fill:rgb(224,127,39);fill-rule:nonzero;"/>
    </g>
    <g transform="matrix(1,0,0,1,36,0)">
        <path d="M110.342,162.034L109.626,162.147C106.885,162.147 104.829,157.262 103.567,153.153C102.192,148.575 101.179,142.934 104.232,142.009L104.926,141.906C107.667,141.906 109.729,146.793 110.976,150.903C112.367,155.472 113.392,161.112 110.342,162.034Z" style="fill:rgb(57,46,42);fill-rule:nonzero;"/>
    </g>
    <g transform="matrix(1,0,0,1,36,0)">
        <path d="M130.848,152.309C129.701,156.475 127.76,161.462 124.982,161.462L124.348,161.378C121.273,160.528 122.132,154.862 123.395,150.262C124.551,146.078 126.504,141.106 129.267,141.106L129.901,141.19C132.979,142.04 132.117,147.693 130.848,152.309Z" style="fill:rgb(57,46,42);fill-rule:nonzero;"/>
    </g>
</svg>
